!!!COM: Music21
!!!OTL: Sabeliña
!!!OMV: pezas_rumbas_sabelina_sabelina-partitura.musicxml
**kern
*I"Bagpipes
*I'Bag
*clefG^2
*k[]
*M2/4
=1
!LO:TX:a:t=Moderato
*MM112
!LO:TX:a:t=[quarter]=112
4.r
16eeLL
16ggJJ
=||
8.cccL
[16cccJk
8cccL]
16eeL
16ggJJ
=
8.cccL
[16cccJk
8cccL]
16eeL
16ggJJ
=
8.cccL
16dddJk
8cccL
16bbL
16aaJJ
=
8ggL
[8ffJ
8ffL]
16ddL
16ffJJ
=
8.bbL
[16bbJk
8bbL]
16ddL
16ffJJ
=
8.bbL
[16bbJk
8bbL]
16ddL
16ffJJ
=
8.bbL
16cccJk
16dddLL
16ccc
16bb
16aaJJ
!!linebreak:original
=
8ggL
[8eeJ
8eeL]
16eeL
16ggJJ
=
8.cccL
[16cccJk
8cccL]
16eeL
16ggJJ
=
8.cccL
[16cccJk
8cccL]
16eeL
16ggJJ
=
8.cccL
16cccJk
8cccL
16bbL
16bb-XJJ
=
4.aa
16ddLL
16ffJJ
=
8.bbL
16cccJk
16dddLL
16ccc
16bb
16aaJJ
=
8ggL
[8eeJ
8eeL]
16ggL
16aaJJ
=
8ggL
16ffL
16eeJJ
8ffL
16eeL
16ddJJ
!!linebreak:original
=
4.cc
16eeLL
16ggJJ
=||
8.cccL
[16cccJk
8cccL]
16eeL
16ggJJ
=
8.cccL
[16cccJk
8cccL]
16eeL
16ggJJ
=
8.cccL
16dddJk
8cccL
16bbL
16aaJJ
=
8ggL
[8ffJ
8ffL]
16ddL
16ffJJ
=
8.bbL
[16bbJk
8bbL]
16ddL
16ffJJ
=
8.bbL
[16bbJk
8bbL]
16ddL
16ffJJ
=
8.bbL
16cccJk
16dddLL
16ccc
16bb
16aaJJ
!!linebreak:original
=
8ggL
[8eeJ
8eeL]
16eeL
16ggJJ
=
8.cccL
[16cccJk
8cccL]
16eeL
16ggJJ
=
8.cccL
[16cccJk
8cccL]
16eeL
16ggJJ
=
8.cccL
16cccJk
8cccL
16bbL
16bb-XJJ
=
4.aa
16ddLL
16ffJJ
=
8.bbL
16cccJk
16dddLL
16ccc
16bb
16aaJJ
=
8ggL
[8eeJ
16eeKL]
8eee
16dddJk
=
8cccL
16bbL
16aaJJ
8ggL
16ffL
16ddJJ
!!linebreak:original
=
4cc
16cccLL
16bb
16ccc
16ggJJ
=||
16ffLL
16ff
16ff
16ddJJ
16ffLL
16ff
16ff
16ddJJ
=
16ffLL
16ff
16ff
16ffJJ
16bbLL
16aa
16bb
16ggJJ
=
16eeLL
16ee
16ee
16ccJJ
16eeLL
16ee
16ee
16ccJJ
!!linebreak:original
=
16eeLL
16ee
16ee
16eeJJ
16ggLL
16ff
16gg
16eeJJ
=
16ddLL
16dd
16dd
16bJJ
16ddLL
16dd
16dd
16bJJ
=
16ddLL
16dd
16dd
16ddJJ
16ffLL
16ee
16ff
16ddJJ
=
16ccLL
16b
16cc
16ddJJ
16eeLL
16ff
16gg
16aaJJ
=
8ggL
16aaL
16bbJJ
16cccLL
16bb
16ccc
16ggJJ
=||
16ffLL
16ff
16ff
16ddJJ
16ffLL
16ff
16ff
16ddJJ
!!linebreak:original
=
16ffLL
16ff
16ff
16ffJJ
16bbLL
16aa
16bb
16ggJJ
=
16eeLL
16ee
16ee
16ccJJ
16eeLL
16ee
16ee
16ccJJ
!!linebreak:original
=
16eeLL
16ee
16ee
16eeJJ
16ggLL
16ff
16gg
16eeJJ
=
16ddLL
16dd
16dd
16bJJ
16ddLL
16dd
16dd
16bJJ
=
16ddLL
16dd
16dd
16ddJJ
16ffLL
16ee
16ff
16ddJJ
=
16bLL
16cc
16b
16ccJJ
8eeL
8ddJ
!!linebreak:original
=
8.cc
96ddLLLL
96ee
96ff
96gg
96aa
96bbJJJJ
16cccLL
16ddd
16ccc
16ggJJ
=||
16ffLL
16ff
16ff
16ddJJ
16ffLL
16ff
16ff
16ddJJ
=
16ffLL
16ff
16ff
16ffJJ
16bbLL
16ccc
16bb
16ggJJ
=
16eeLL
16ee
16ee
16ccJJ
16eeLL
16ee
16ee
16ccJJ
=
16eeLL
16ee
16ee
16eeJJ
16ggLL
16aa
16gg
16eeJJ
!!linebreak:original
=
16ddLL
16dd
16dd
16bJJ
16ddLL
16dd
16dd
16bJJ
=
16ddLL
16dd
16dd
16ddJJ
16ffLL
16gg
16ff
16ddJJ
=
16ccLL
16b
16cc
16ddJJ
16eeLL
16ff
16gg
16aaJJ
=
8ggL
16aaL
16bbJJ
16cccLL
16ddd
16ccc
16ggJJ
=||
16ffLL
16ff
16ff
16ddJJ
16ffLL
16ff
16ff
16ddJJ
=
16ffLL
16ff
16ff
16ffJJ
16bbLL
16ccc
16bb
16ggJJ
!!linebreak:original
=
16eeLL
16ee
16ee
16ccJJ
16eeLL
16ee
16ee
16ccJJ
=
16eeLL
16ee
16ee
16eeJJ
16ggLL
16aa
16gg
16eeJJ
!!linebreak:original
=
16ddLL
16dd
16dd
16bJJ
16ddLL
16dd
16dd
16bJJ
=
16ddLL
16dd
16dd
16ddJJ
16ffLL
16gg
16ff
16ddJJ
=
16bLL
16cc
16dd
16eeJJ
16ffLL
16gg
16aa
16bbJJ
=
4.ccc
16eeLL
16ggJJ
==
*-
